X: 8495
T: Cream Pot, The
R: jig
M: 6/8
K: Gmajor
G2A B2c|dBd efg|G2A B2c|dBG AFD|
E2C CEG|F2D D2c|BdB cAF|G3G,3:|
K:D
d2e f2g|afd ecA|faf ege|fdf ecA|
B2G GBd|c2A AcA|BdB cec|d3d3:|
K:G
B2g gdB|B2 ggdB|A2A ABc|B2G AFD|
E2C CEG|F2D D2c|BdB cAF|G3G,3:|

